X:22
T:Boys of Ballisodare
Z: id:dc-reel-22
M:C
L:1/8
K:G Major
dGG2 dGeG|dGGA BAA2|dGG2 dedB|AcBA GED2|!
dGG2 dGeG|dGGA BAA2|Bdd2 e2dB|AcBA GED2|]!
gfga bgaf|gfga bee2|gfga bgaf gfed ^cdef|!
gfga bgaf|gfga bee2|bgaf gedB|AcBA GED2|]!
Bdd2 Bdgd|Bdgd BAA2|Bdd2 e2dB|AcBA GED2|!
Bdd2 Bdgd|Bdgd BAA2|eBB2 gBB2|AcBA GED2|]!

